X:1
T: Lady Stormont's Strathspey
C:
R:Strathspey
Q: 128
K:A
M:4/4
L:1/16
|:E2|A4 A3B c3B A3c|f3e d3c dcBA G3B|A3A A3B c3d e3c|F2B2 AGFE A6 E2|
A4 A3B c3B A3c|f3e d3c dcBA G3B|A,3C E3A ((3d2f2d2) ((3c2e2c2) |dcBA G3B A6 e2|
AA3 a3e c3B A3c|f3e d3c dcBA G3B|AA3 a3e c3d e3c|F3B AGFE A4 A3G|
AA3 a3e c3B A3c|f3e d3c dcBA G3B|((3A2c2e2) ((3a2e2c2) ((3f2d2B2) ((3e2c2A2) |dcBA G3B A6:|
